!!!COA: des Prez, Josquin
!!!CDT: ~1450-1521/08/27
!!!COM: Mouton, Jean
!!!ONB: probably by Mouton, Jean; attrib. Josquin in a single partbook in Antico 1520
!!!OTL: Salve mater salvatoris
!!!AGN: Motet
!!!SCT: Jos9920
!!!SCA: Jos9920
!!!voices: 4
**kern	**kern	**kern	**kern
*part4	*part3	*part2	*part1
*staff4	*staff3	*staff2	*staff1
*Ivox	*Ivox	*Ivox	*Ivox
*I"Bassus	*I"Tenor	*I"Altus	*I"Superius
*I'B	*I'T	*I'A	*I'S
*clefF4	*clefGv2	*clefGv2	*clefG2
*k[b-]	*k[b-]	*k[b-]	*k[b-]
*d:	*d:	*d:	*d:
*M2/1	*M2/1	*M2/1	*M2/1
*met(C|)	*met(C|)	*met(C|)	*met(C|)
=	=	=	=
!LO:TX:Z=8:t=B&rarr;A inversion canon (8ve, 2 breves)	!	!	!
0r	0G	0r	0r
=3	=3	=3	=3
0r	1G	0r	0r
.	1A	.	.
=4	=4	=4	=4
0r	1.G	0r	0g
.	2A	.	.
=5	=5	=5	=5
0r	2B-	0r	1g
.	2c	.	.
.	1d	.	1f
=6	=6	=6	=6
0r	1B-	0r	1.g
.	[1c	.	.
.	.	.	2f
=7	=7	=7	=7
0r	2c]	0r	2e
.	2B-	.	2d
.	1A	.	1c
=8	=8	=8	=8
0r	2.G	0r	1e
.	4A	.	.
.	4B-	.	2.d
.	4c	.	.
.	[2d	.	.
.	.	.	4e
=9	=9	=9	=9
0r	2d]	0r	2f
.	4c	.	1g
.	4B-	.	.
.	1A	.	.
.	.	.	2f#Xi
=10	=10	=10	=10
0r	0G	0r	2.g
.	.	.	4a
.	.	.	4b-
.	.	.	4cc
.	.	.	2b-
=11	=11	=11	=11
0r	1r	0r	2g
.	.	.	1b-
.	2.d	.	.
.	.	.	4a
.	4e	.	4g
=12	=12	=12	=12
0D	4f	0r	0a
.	4g	.	.
.	2f	.	.
.	2d	.	.
.	[2f	.	.
=13	=13	=13	=13
1D	4f]	0r	0r
.	4e	.	.
.	1d	.	.
1E	.	.	.
.	2c	.	.
=14	=14	=14	=14
1.D	2B-	0d	1.f
.	2A	.	.
.	1B-	.	.
2E	.	.	2g
=15	=15	=15	=15
2F	1A	1d	0a
2G	.	.	.
1A	2r	1c	.
.	[2f	.	.
=16	=16	=16	=16
1F	4f]	1.d	1a
.	4e	.	.
.	4d	.	.
.	4c	.	.
[1G	2B-	.	1b-
.	[2e-	2c	.
=17	=17	=17	=17
2G]	2e-]	2B-	1.g
2F	1d	2A	.
1E	.	1G	.
.	2c	.	4f
.	.	.	4e
=18	=18	=18	=18
0D	2d	1B-	2f
.	2.f	.	2d
.	.	[1A	1f
.	4e	.	.
.	2d	.	.
=19	=19	=19	=19
0r	2c	2A]	2e
.	1B-	2B-	2d
.	.	1c	1e
.	2A	.	.
=20	=20	=20	=20
0G	0B-	0d	1d
.	.	.	[1g
=21	=21	=21	=21
1G	1r	0r	2g]
.	.	.	2a
1G	[1d	.	1b-
=22	=22	=22	=22
1.D	2d]	0A	1a
.	2e	.	.
.	[1f	.	1r
2C	.	.	.
=23	=23	=23	=23
2.D	2f]	1A	0r
.	4e	.	.
4E	4d	.	.
1F	1c	1A	.
=24	=24	=24	=24
[0G	0B-	1.d	1.g
.	.	2e	2a
=25	=25	=25	=25
1G]	1r	2.d	1.b-
.	.	4c	.
1G	[1d	1B-	.
.	.	.	4a
.	.	.	4g
=26	=26	=26	=26
[0D	2d]	[0A	2f
.	2e	.	2g
.	1f	.	[1a
=27	=27	=27	=27
0D]	2d	1A]	1a]
.	2.f	.	.
.	.	1A	1d
.	4e	.	.
.	4d	.	.
.	4c	.	.
=28	=28	=28	=28
0r	2B-	[0d	1r
.	4A	.	.
.	4G	.	.
.	[1B-	.	[1f
=29	=29	=29	=29
0r	2B-]	0d]	2f]
.	2A	.	4g
.	.	.	4a
.	2.G	.	1b-
.	4F	.	.
=30	=30	=30	=30
1.F	1c	0r	1.a
.	2d	.	.
2G	[2e	.	2g
=31	=31	=31	=31
1B-	4e]	0r	2f
.	4d	.	.
.	1d	.	4e
.	.	.	4d
1A	.	.	2e
.	2c	.	2f
=32	=32	=32	=32
1.G	1.d	1.B-	2.g
.	.	.	4a
.	.	.	2b-
2A	2c	2A	[2cc
=33	=33	=33	=33
1D	2A	1F	2cc]
.	1d	.	4b-
.	.	.	4a
1E	.	1G	1g
.	2c#Xi	.	.
=34	=34	=34	=34
2.D	0d	1.A	2.f
4E	.	.	4g
2F	.	.	2a
[2G	.	2G	[2b-
=35	=35	=35	=35
4G]	0r	1d	4b-]
4A	.	.	4a
2B-	.	.	1g
1A	.	1c	.
.	.	.	2f
=36	=36	=36	=36
1G	1.g	2.d	2.b-
.	.	4c	4cc
1r	.	2B-	2dd
.	2c	[2A	[2cc
=37	=37	=37	=37
0r	2e	4A]	2cc]
.	.	4G	.
.	2f	2F	4b-
.	.	.	4a
.	1d	1G	1b-
=38	=38	=38	=38
0F	2.c	1A	0cc
.	4B-	.	.
.	4A	1r	.
.	4G	.	.
.	2A	.	.
=39	=39	=39	=39
1G	2G	0r	1r
.	1g	.	.
1A	.	.	1c
.	2f#Xi	.	.
=40	=40	=40	=40
1.G	0g	0B-	2.d
.	.	.	4c
.	.	.	2d
2G	.	.	[2e
=41	=41	=41	=41
1F	1r	1A	4e]
.	.	.	4d
.	.	.	1d
1E	1g	1G	.
.	.	.	2c#Xi
=42	=42	=42	=42
0D	1.f	1.A	1d
.	.	.	1r
.	2e	2A	.
=43	=43	=43	=43
0r	2d	1B-	1.f
.	4c	.	.
.	4B-	.	.
.	[1A	1c	.
.	.	.	2e
=44	=44	=44	=44
0D	2A]	0d	2.f
.	2B-	.	.
.	.	.	4g
.	2A	.	2a
.	[2d	.	[2b-
=45	=45	=45	=45
1F	2d]	0r	4b-]
.	.	.	4a
.	2c	.	1a
1G	1B-	.	.
.	.	.	2g
=46	=46	=46	=46
1.D	1.f	0d	0a
2D	4e	.	.
.	4d	.	.
=47	=47	=47	=47
1D	2.f	1B-	1r
.	4g	.	.
1D	1a	1A	[1f
=48	=48	=48	=48
1.D	2d	1.d	2f]
.	2.f	.	4e
.	.	.	4d
.	.	.	2.f
.	4e	.	.
2BB-	4d	2d	.
.	8cL	.	4g
.	8B-J	.	.
=49	=49	=49	=49
2F	2A	1d	2a
2G	2B-	.	1g
1D	1A	1d	.
.	.	.	2f#Xi
=50	=50	=50	=50
0GGl	0Gl	0dl	0gl
==	==	==	==
*-	*-	*-	*-
!!!RDF**kern: l=long note in original notation
!!!system-decoration: s1,s2,s3,s4
!!!RDF**kern: i = editorial accidental
!!!ENC: Chris Gage 07-28-2014
!!!END: 2020/10/21/
!!!EED: Jesse Rodin
!!!EEV: 2020/10/23
!!attribution-level@Jos: 4b (almost certainly by another composer [double question mark])
!!!ONB: Translated from MusicXML and edited on 2021/03/22 by Craig Sapp
!!muse2ps: C^probably by Mouton, Jean  \nattrib. Josquin in a single partbook in Antico 1520^i2I150v85,85,85,150c110
